svgs/duotone/calendar-image.svg

<svg xmlns="http://www.w3.org/2000/svg" viewBox="0 0 448 512"><!--! Font Awesome Pro 6.6.0 by @fontawesome - https://fontawesome.com License - https://fontawesome.com/license (Commercial License) Copyright 2024 Fonticons, Inc. --><path class="fa-secondary" style="fill:var(--fa-secondary-color,inherit);opacity:var(--fa-secondary-opacity,.4);" d="M0 192l448 0 0 272c0 26.5-21.5 48-48 48L48 512c-26.5 0-48-21.5-48-48L0 192zm96 96a32 32 0 1 0 64 0 32 32 0 1 0 -64 0zm3.8 134.2c-8.1 10.5-.6 25.8 12.7 25.8l226.4 0c12.6 0 20.3-13.9 13.5-24.6L268.9 292.3c-6.1-9.7-20.1-9.9-26.7-.5L184 376l-11.4-15.1c-6.4-8.5-19-8.5-25.5-.2L99.8 422.2z"/><path class="fa-primary" style="fill:var(--fa-primary-color,inherit);opacity:var(--fa-primary-opacity,1);" d="M128 0C110.3 0 96 14.3 96 32l0 32L48 64C21.5 64 0 85.5 0 112l0 80 448 0 0-80c0-26.5-21.5-48-48-48l-48 0 0-32c0-17.7-14.3-32-32-32s-32 14.3-32 32l0 32L160 64l0-32c0-17.7-14.3-32-32-32zM99.8 422.2c-8.1 10.5-.6 25.8 12.7 25.8l226.4 0c12.6 0 20.3-13.9 13.5-24.6L268.9 292.3c-6.1-9.7-20.1-9.9-26.7-.5L184 376l-11.4-15.1c-6.4-8.5-19-8.5-25.5-.2L99.8 422.2z"/></svg>

<svg xmlns="http://www.w3.org/2000/svg" viewBox="0 0 448 512"><!--! Font Awesome Pro 6.4.2 by @fontawesome - https://fontawesome.com License - https://fontawesome.com/license (Commercial License) Copyright 2023 Fonticons, Inc. --><path class="fa-primary" style="fill:var(--fa-primary-color,inherit);opacity:var(--fa-primary-opacity,1);" d="M128 0C110.3 0 96 14.3 96 32V64H48C21.5 64 0 85.5 0 112v80H448V112c0-26.5-21.5-48-48-48H352V32c0-17.7-14.3-32-32-32s-32 14.3-32 32V64H160V32c0-17.7-14.3-32-32-32zM99.8 422.2c-8.1 10.5-.6 25.8 12.7 25.8H338.9c12.6 0 20.3-13.9 13.5-24.6L268.9 292.3c-6.1-9.7-20.1-9.9-26.7-.5L184 376l-11.4-15.1c-6.4-8.5-19-8.5-25.5-.2L99.8 422.2z"/><path class="fa-secondary" style="fill:var(--fa-secondary-color,inherit);opacity:var(--fa-secondary-opacity,.4);" d="M0 192H448V464c0 26.5-21.5 48-48 48H48c-26.5 0-48-21.5-48-48V192zM147.2 360.7L99.8 422.2c-8.1 10.5-.6 25.8 12.7 25.8H338.9c12.6 0 20.3-13.9 13.5-24.6L268.9 292.3c-6.1-9.7-20.1-9.9-26.7-.5L184 376l-11.4-15.1c-6.4-8.5-19-8.5-25.5-.2zM128 320a32 32 0 1 0 0-64 32 32 0 1 0 0 64z"/></svg>
